X: 19
T:Petticoat Loose (#129)
M:6/8
L:1/8
S:Sergt. James O'Neill manuscripts
K:G
dc|:B2 G AFD|B2 G AFD|DGG AGF|DGG Adc|
B2 G AFD|B/2A/2GB AFD|F2 F FAG|FDE FGA:|
|BdB cAc|BdB AFD|g2 g gdg|gag fdc|
BdB cAc|BGB AFD|f2 f fde|f/2g/2ag fdc|
B/2c/2dB cBA|BGB AFD|g2 g gdg|gag fdc|
B/2c/2dB cBA|BAG AFD|f2 f fde|f/2g/2ag fdc||
%
% "Petticoat Loose" is an old name for a dance tune. A jig under
% that name in O'Neill's Dance Music of Ireland bears no
% resemblance to the above.

